Origami/48x48/apps/mps.svg

<svg width="48" height="48" version="1" xmlns="http://www.w3.org/2000/svg">
 <path d="m24 4h-18c-1.108 0-2 0.892-2 2v18h20z" style="fill:#f7c73c"/>
 <path d="m24 4h18c1.108 0 2 0.892 2 2v18h-20z" style="fill:#21d789"/>
 <path d="m24 44h-18c-1.108 0-2-0.892-2-2v-18h20z" style="fill:#21d789"/>
 <path d="m24 44h18c1.108 0 2-0.892 2-2v-18h-20z" style="fill:#2086e7"/>
 <path d="m6 4c-1.108 0-2 0.892-2 2v1c0-1.108 0.892-2 2-2h36c1.108 0 2 0.892 2 2v-1c0-1.108-0.892-2-2-2h-36z" fill="#fff" opacity=".2"/>
 <path d="m6 45c-1.108 0-2-0.892-2-2v-1c0 1.108 0.892 2 2 2h36c1.108 0 2-0.892 2-2v1c0 1.108-0.892 2-2 2h-36z" opacity=".2"/>
 <rect x="10" y="10" width="28" height="28" style="fill:#3f3f3f"/>
 <path d="m16 32.9999h8" style="fill:none;opacity:.2;stroke-linecap:round;stroke-width:2;stroke:#000000"/>
 <path d="m16 32h8" style="fill:none;stroke-linecap:round;stroke-width:2;stroke:#ffffff"/>
 <path d="m20 24.999903v-8.000001m-6 0 3 3.999998 3-3.999998m-6 8.000001v-8.000001" style="fill:none;opacity:.2;stroke-linecap:round;stroke-linejoin:round;stroke-width:1.9999999;stroke:#000000"/>
 <path d="m20 24.000003v-8.000001m-6 0l3 3.999998 3-3.999998m-6 8.000001v-8.000001" style="fill:none;stroke-linecap:round;stroke-linejoin:round;stroke-width:1.9999999;stroke:#ffffff"/>
 <path d="m23 20.9999s4.000003 0.464501 4.000003-1.999997c0-2.464501-4.000003-2.000001-4.000003-2.000001m9.8e-5 8.000099v-8.000001" style="fill:none;opacity:.2;stroke-linecap:round;stroke-linejoin:bevel;stroke-width:1.9999999;stroke:#000000"/>
 <path d="m23 20s4.000003 0.464501 4.000003-1.999997c0-2.464501-4.000003-2.000001-4.000003-2.000001m9.8e-5 8.000099v-8.000001" style="fill:none;stroke-linecap:round;stroke-linejoin:bevel;stroke-width:1.9999999;stroke:#ffffff"/>
 <path d="m30 23.9999s0.504385 1.000967 2.000001 1.000483c1.495612-4.8e-4 1.999997-1.000483 1.999997-2.000481 0-4.214385-3.999998 0.211162-3.988017-3.990705-0.01209-1.009297 0.471866-2.009295 1.98802-2.009295 1.51615 0 1.999884 0.999998 1.999884 0.999998" style="fill:none;opacity:.2;stroke-linecap:round;stroke-linejoin:round;stroke-width:1.9999999;stroke:#000000"/>
 <path d="m30 23s0.504385 1.000967 2.000001 1.000483c1.495612-4.8e-4 1.999997-1.000483 1.999997-2.000481 0-4.214385-3.999998 0.211162-3.988017-3.990705-0.01209-1.009297 0.471866-2.009295 1.98802-2.009295 1.51615 0 1.999884 0.999998 1.999884 0.999998" style="fill:none;stroke-linecap:round;stroke-linejoin:round;stroke-width:1.9999999;stroke:#ffffff"/>
</svg>

<svg xmlns="http://www.w3.org/2000/svg" width="48" height="48" version="1">
 <path style="fill:#f7c73c" d="m24 4h-18c-1.108 0-2 0.892-2 2v18h20z"/>
 <path style="fill:#21d789" d="m24 4h18c1.108 0 2 0.892 2 2v18h-20z"/>
 <path style="fill:#21d789" d="m24 44h-18c-1.108 0-2-0.892-2-2v-18h20z"/>
 <path style="fill:#2086e7" d="m24 44h18c1.108 0 2-0.892 2-2v-18h-20z"/>
 <path fill="#fff" opacity=".2" d="m6 4c-1.108 0-2 0.892-2 2v1c0-1.108 0.892-2 2-2h36c1.108 0 2 0.892 2 2v-1c0-1.108-0.892-2-2-2h-36z"/>
 <path opacity=".2" d="m6 45c-1.108 0-2-0.892-2-2v-1c0 1.108 0.892 2 2 2h36c1.108 0 2-0.892 2-2v1c0 1.108-0.892 2-2 2h-36z"/>
 <rect style="fill:#3f3f3f" width="28" height="28" x="10" y="10"/>
 <path style="opacity:0.2;fill:none;stroke:#000000;stroke-width:2;stroke-linecap:round" d="m 16,32.9999 h 8"/>
 <path style="fill:none;stroke:#ffffff;stroke-width:2;stroke-linecap:round" d="m 16,32 h 8"/>
 <path style="opacity:0.2;fill:none;stroke:#000000;stroke-width:1.99999988;stroke-linecap:round;stroke-linejoin:round" d="m 20,24.999903 v -8.000001 m -6,0 3,3.999998 3,-3.999998 m -6,8.000001 v -8.000001"/>
 <path style="fill:none;stroke:#ffffff;stroke-width:1.99999988;stroke-linecap:round;stroke-linejoin:round" d="m 20,24.000003 v -8.000001 m -6,0 L 17,20 20,16.000002 m -6,8.000001 v -8.000001"/>
 <path style="opacity:0.2;fill:none;stroke:#000000;stroke-width:1.99999988;stroke-linecap:round;stroke-linejoin:bevel" d="m 23,20.9999 c 0,0 4.000003,0.464501 4.000003,-1.999997 C 27.000003,16.535402 23,16.999902 23,16.999902 m 9.8e-5,8.000099 V 17"/>
 <path style="fill:none;stroke:#ffffff;stroke-width:1.99999988;stroke-linecap:round;stroke-linejoin:bevel" d="m 23,20 c 0,0 4.000003,0.464501 4.000003,-1.999997 C 27.000003,15.535502 23,16.000002 23,16.000002 m 9.8e-5,8.000099 V 16.0001"/>
 <path style="opacity:0.2;fill:none;stroke:#000000;stroke-width:1.99999988;stroke-linecap:round;stroke-linejoin:round" d="m 30,23.9999 c 0,0 0.504385,1.000967 2.000001,1.000483 1.495612,-4.8e-4 1.999997,-1.000483 1.999997,-2.000481 0,-4.214385 -3.999998,0.211162 -3.988017,-3.990705 -0.01209,-1.009297 0.471866,-2.009295 1.98802,-2.009295 1.51615,0 1.999884,0.999998 1.999884,0.999998"/>
 <path style="fill:none;stroke:#ffffff;stroke-width:1.99999988;stroke-linecap:round;stroke-linejoin:round" d="m 30,23 c 0,0 0.504385,1.000967 2.000001,1.000483 C 33.495613,24.000003 33.999998,23 33.999998,22.000002 33.999998,17.785617 30,22.211164 30.011981,18.009297 29.999891,17 30.483847,16.000002 32.000001,16.000002 33.516151,16.000002 33.999885,17 33.999885,17"/>
</svg>
